X: 24227
T: Lord Moira's Welcome To Scotland
R: strathspey
M: 4/4
K: Gmajor
|:B|G2 GA Bd d2|BABG AGED|EGGA Bd d2|1 egfa ged:|2 egfa g3||
f|gabg ge d2|efge dB B2|gabg ge d2|egfa g3 f|
gabg ge d2|efge dBBA|G2 GA Bd d2|egfa g3||

